assets/images/school__course-item--conv.svg

<svg fill="none" height="22" viewBox="0 0 106 22" width="106" xmlns="http://www.w3.org/2000/svg"><g fill="#231815"><path d="m25.568 12.6233c0-.481.241-.75.661-.75h.6599v-2.67115c0-.47998.27-.75.75-.75h3.286v-.63086c0-.47998.27-.75.75-.75h.6761c.4799 0 .75.25586.75.69092v.68994h3.4949c.4811 0 .75.27002.75.75v2.67115h.4361c.48 0 .749.269.749.75v.51c0 .48-.269.75-.749.75h-3.9461c.9301.946 2.2951 1.5469 4.141 1.8469.5701.0901.6911.4041.375.8679-.1499.2112-.2849.4522-.4049.6761-.2101.3911-.511.5561-.9601.466-2.2049-.466-3.7069-1.3808-4.802-2.8659-.87 1.1999-2.4149 2.176-4.995 2.8359-.4519.104-.7519-.031-.9909-.4209l-.345-.5251c-.3461-.4639-.2111-.8099.375-.9439 2.13-.4809 3.3309-1.1421 3.991-1.937h-3.901c-.48 0-.751-.27-.751-.75zm.12-6.82716v-.43481c0-.47998.27-.75.75-.75h1.921v-.28516c0-.48096.271-.75.751-.75h.5539c.48 0 .75.1792.75.51001v.52515h3.2261v-.28516c0-.48096.271-.75.752-.75h.57c.48 0 .75.1792.75.51001v.52515h1.951c.478 0 .749.27002.749.75v.43481c0 .48023-.271.75-.749.75h-1.951v.46607c0 .47998-.27.75-.75.75h-.57c-.481 0-.752-.22486-.752-.61499v-.60108h-3.2261v.46607c0 .47998-.27.75-.75.75h-.5539c-.48 0-.751-.27002-.751-.75v-.46607h-1.921c-.48 0-.75-.26977-.75-.75zm5.2369 4.53226h-2.0409v1.5449h2.0409zm4.3061 0h-2.131v1.5449h2.131z"/><path d="m41.7039 8.13745c1.9201-1.02197 3.647-2.62695 4.636-4.052.225-.32983.496-.47998.901-.47998h1.0351c.391 0 .66.13501.916.46411 1.3039 1.71191 2.9989 3.00195 4.8009 3.78198.4801.22486.5701.54004.254.98999-.15.22486-.2989.44995-.4499.69092-.2391.40503-.584.52513-1.005.29907-.5561-.31494-1.11-.65991-1.651-1.03393v.47998c0 .47998-.2701.75001-.75.75001h-5.1011c-.48 0-.75-.27003-.75-.75001v-.36206c-.5399.37597-1.095.75195-1.6819 1.06689-.4191.23898-.764.12008-1.019-.2998-.105-.18018-.225-.37598-.36-.55616-.3001-.41894-.225-.75.2249-.98901zm.241 3.54005c0-.48.2691-.75.75-.75h10.3671c.48 0 .75.27.75.75v.5261c0 .48-.27.75-.75.75h-2.2051c.9601.9148 1.9491 2.0398 2.6111 3.0149.2839.405.1939.7661-.2261 1.0361l-.6599.419c-.4201.2549-.7201.241-.9-.0452-.0751-.135-.1651-.2839-.271-.4348-2.9551.1809-6.0761.3308-8.432.4509-.48.0149-.75-.2099-.8091-.6899l-.0759-.6311c-.059-.51.1799-.7791.6749-.8101l1.395-.0449c.316-.7051.615-1.5159.8411-2.2649h-2.3101c-.4809 0-.75-.27-.75-.75zm5.896-5.98609c-.541.76513-1.291 1.57519-2.176 2.34008h4.456c-.9289-.75-1.74-1.56103-2.28-2.34008zm2.115 9.31709c-.1799-.2099-.36-.405-.5399-.601-.3611-.4041-.3001-.795.1639-1.0501l.7521-.4038h-2.7771c-.359.7349-.719 1.499-1.08 2.19z"/><path d="m56.817 6.8766c0-.47999.27-.75.75-.75h4.023c.4799 0 .749.27001.749.75v.19409c0 .48095-.2691.75-.749.75h-4.023c-.48 0-.75-.26905-.75-.75zm.646 6.4971c0-.48.2689-.751.75-.751h3.015c.48 0 .752.271.752.751v3.165c0 .48-.272.75-.752.75h-2.055c0 .345-.27.541-.75.541h-.21c-.4811 0-.75-.271-.75-.751zm.0449-4.29203c0-.47998.2691-.75.75-.75h2.88c.48 0 .75.27002.75.75v.11988c0 .48022-.27.75-.75.75h-2.88c-.4809 0-.75-.26978-.75-.75zm0 2.13083c0-.4809.2691-.75.75-.75h2.88c.48 0 .75.2691.75.75v.1202c0 .4799-.27.75-.75.75h-2.88c-.4809 0-.75-.2701-.75-.75zm3.646-5.58175h-2.807c-.48 0-.7489-.27002-.7489-.75v-.12012c0-.47998.2689-.75.7489-.75h2.807c.4801 0 .75.27002.75.75v.12012c0 .47998-.2699.75-.75.75zm-.9309 8.68705h-1.05v1.2749h1.05zm2.235-5.65507c0-.48096.272-.7522.752-.7522h2.16v-1.48486c-.51.06103-1.006.10595-1.486.15088-.4651.03003-.7191-.1958-.854-.646-.031-.11987-.061-.22485-.106-.34497-.165-.51099.0159-.82495.541-.88501 1.649-.17993 3.316-.46582 4.6059-.83984.4041-.12012.7201-.01612.9901.31494l.45.57007c.345.43481.241.87085-.3151 1.00488-.5409.13501-1.1109.2561-1.6949.36011v1.7998h2.175c.48 0 .75.27124.75.7522v.55395c0 .47998-.27.75098-.75.75098h-2.175v1.66504h1.634c.48 0 .752.27.752.75v4.6509c0 .48-.272.751-.752.751h-.5701c-.4799 0-.75-.1199-.75-.3309v-.3291h-2.7009c0 .4642-.269.72-.75.72h-.4491c-.48 0-.75-.27-.75-.75v-4.7119c0-.48.27-.75.75-.75h1.4551v-1.66504h-2.16c-.48 0-.752-.271-.752-.75098zm5.3569 4.91997h-2.7009v1.591h2.7009z"/><path d="m72.9979 16.2693v-.856c0-.48.27-.75.75-.75h6.031v-6.27194h-6.031c-.48 0-.75-.27002-.75-.75v-.85401c0-.47998.27-.75219.75-.75219h7.7271c.48 0 .75.27221.75.75219v9.48195c0 .48-.27.75-.75.75h-7.7271c-.48 0-.75-.27-.75-.75z"/><path d="m85.77 12.3833v-.856c0-.4799.2699-.75.75-.75h5.432c.48 0 .75.2701.75.75v.856c0 .48-.27.75-.75.75h-5.432c-.4801 0-.75-.27-.75-.75z"/><path d="m95.6169 16.7793v-1.2009c0-.4051.1651-.6741.5091-.9012 2.6419-1.6489 4.352-3.645 5.477-6.48091h-4.681c-.48 0-.749-.27002-.749-.75v-.91504c0-.47998.269-.75.749-.75h7.037c.525 0 .795.31494.66.82495-.466 1.97998-1.305 3.676-2.221 5.0862.705 1.0359 1.726 2.01 2.581 2.7458.3.2552.42.5252.42.9151v1.216c0 .6289-.42.854-.929.4639-1.306-1.0339-2.342-2.0999-3.406-3.5249-1.036 1.2749-2.852 2.8359-4.562 3.811-.495.3001-.8851.045-.8851-.54z"/></g><path d="m21.4199 10.71c0-5.52201-2.73-10.71-10.7099-10.71-7.98002 0-10.71 5.18799-10.71 10.71 0 5.5219 2.72998 10.7099 10.71 10.7099 7.9799 0 10.7099-5.188 10.7099-10.7099z" fill="#55b032"/><path d="m4.896 14.2766c0-.802.40893-1.3992 1.46704-1.3992.76794 0 1.51892.3582 2.16699.4952.22192-.3921.34192-1.0921.40991-1.5362l.13599-.9548c-1.14295-.188-2.50794-.666-3.46399-1.65601l1.07507-1.41602c.90491.75098 1.84302 1.10889 2.62793 1.28003.35803-2.45703 1.33106-4.0271 3.66906-4.0271 1.177 0 2.526.78491 2.526 2.38892 0 1.29712-1.041 3.27608-4.4031 3.51518l-.1709 1.177c-.085.5639-.29 1.4509-.5631 1.9108.4441.188 1.0241.2742 1.6731.2742 1.211 0 2.167-.6831 2.9519-2.185l1.4501.6999c-.887 1.894-2.338 3.208-4.4711 3.1401-1.006-.0341-2.01291-.29-2.95188-.6152-.58007.4441-1.31408.6152-2.06506.6152-1.29602 0-2.047-.768-2.06396-1.707zm8.6-6.77416c0-.427-.273-.64795-.648-.64795-.717 0-1.229.95508-1.451 2.30298 1.706-.23901 2.099-1.19385 2.099-1.65503z" fill="#fff"/></svg>

<svg width="106" height="22" viewBox="0 0 106 22" fill="none" xmlns="http://www.w3.org/2000/svg">
<path d="M25.568 12.6233C25.568 12.1423 25.809 11.8733 26.229 11.8733H26.8889V9.20215C26.8889 8.72217 27.1589 8.45215 27.6389 8.45215H30.9249V7.82129C30.9249 7.34131 31.1949 7.07129 31.6749 7.07129H32.351C32.8309 7.07129 33.101 7.32715 33.101 7.76221V8.45215H36.5959C37.077 8.45215 37.3459 8.72217 37.3459 9.20215V11.8733H37.782C38.262 11.8733 38.531 12.1423 38.531 12.6233V13.1333C38.531 13.6133 38.262 13.8833 37.782 13.8833H33.8359C34.766 14.8293 36.131 15.4302 37.9769 15.7302C38.547 15.8203 38.668 16.1343 38.3519 16.5981C38.202 16.8093 38.067 17.0503 37.947 17.2742C37.7369 17.6653 37.436 17.8303 36.9869 17.7402C34.782 17.2742 33.28 16.3594 32.1849 14.8743C31.3149 16.0742 29.77 17.0503 27.1899 17.7102C26.738 17.8142 26.438 17.6792 26.199 17.2893L25.854 16.7642C25.5079 16.3003 25.6429 15.9543 26.229 15.8203C28.359 15.3394 29.5599 14.6782 30.22 13.8833H26.319C25.839 13.8833 25.568 13.6133 25.568 13.1333V12.6233ZM25.688 5.79614V5.36133C25.688 4.88135 25.958 4.61133 26.438 4.61133H28.359V4.32617C28.359 3.84521 28.63 3.57617 29.11 3.57617H29.6639C30.1439 3.57617 30.4139 3.75537 30.4139 4.08618V4.61133H33.64V4.32617C33.64 3.84521 33.911 3.57617 34.392 3.57617H34.962C35.442 3.57617 35.712 3.75537 35.712 4.08618V4.61133H37.663C38.141 4.61133 38.412 4.88135 38.412 5.36133V5.79614C38.412 6.27637 38.141 6.54614 37.663 6.54614H35.712V7.01221C35.712 7.49219 35.442 7.76221 34.962 7.76221H34.392C33.911 7.76221 33.64 7.53735 33.64 7.14722V6.54614H30.4139V7.01221C30.4139 7.49219 30.1439 7.76221 29.6639 7.76221H29.11C28.63 7.76221 28.359 7.49219 28.359 7.01221V6.54614H26.438C25.958 6.54614 25.688 6.27637 25.688 5.79614ZM30.9249 10.3284H28.884V11.8733H30.9249V10.3284ZM35.231 10.3284H33.1V11.8733H35.231V10.3284Z" fill="#231815"/>
<path d="M41.7039 8.13745C43.624 7.11548 45.3509 5.5105 46.3399 4.08545C46.5649 3.75562 46.8359 3.60547 47.2409 3.60547H48.276C48.667 3.60547 48.936 3.74048 49.192 4.06958C50.4959 5.78149 52.1909 7.07153 53.9929 7.85156C54.473 8.07642 54.563 8.3916 54.2469 8.84155C54.0969 9.06641 53.948 9.2915 53.797 9.53247C53.5579 9.9375 53.213 10.0576 52.792 9.83154C52.2359 9.5166 51.682 9.17163 51.141 8.79761V9.27759C51.141 9.75757 50.8709 10.0276 50.391 10.0276H45.2899C44.8099 10.0276 44.5399 9.75757 44.5399 9.27759V8.91553C44 9.2915 43.4449 9.66748 42.858 9.98242C42.4389 10.2214 42.094 10.1025 41.839 9.68262C41.734 9.50244 41.614 9.30664 41.479 9.12646C41.1789 8.70752 41.254 8.37646 41.7039 8.13745ZM41.9449 11.6775C41.9449 11.1975 42.214 10.9275 42.6949 10.9275H53.062C53.542 10.9275 53.812 11.1975 53.812 11.6775V12.2036C53.812 12.6836 53.542 12.9536 53.062 12.9536H50.8569C51.817 13.8684 52.806 14.9934 53.468 15.9685C53.7519 16.3735 53.6619 16.7346 53.2419 17.0046L52.582 17.4236C52.1619 17.6785 51.8619 17.6646 51.682 17.3784C51.6069 17.2434 51.5169 17.0945 51.411 16.9436C48.4559 17.1245 45.3349 17.2744 42.979 17.3945C42.499 17.4094 42.229 17.1846 42.1699 16.7046L42.094 16.0735C42.035 15.5635 42.2739 15.2944 42.7689 15.2634L44.1639 15.2185C44.4799 14.5134 44.7789 13.7026 45.005 12.9536H42.6949C42.214 12.9536 41.9449 12.6836 41.9449 12.2036V11.6775ZM47.8409 5.69141C47.2999 6.45654 46.5499 7.2666 45.6649 8.03149H50.1209C49.192 7.28149 48.3809 6.47046 47.8409 5.69141ZM49.9559 15.0085C49.776 14.7986 49.5959 14.6035 49.416 14.4075C49.0549 14.0034 49.1159 13.6125 49.5799 13.3574L50.332 12.9536H47.5549C47.1959 13.6885 46.8359 14.4526 46.4749 15.1436L49.9559 15.0085Z" fill="#231815"/>
<path d="M56.817 6.8766C56.817 6.39661 57.087 6.1266 57.567 6.1266H61.59C62.0699 6.1266 62.339 6.39661 62.339 6.8766V7.07069C62.339 7.55164 62.0699 7.82069 61.59 7.82069H57.567C57.087 7.82069 56.817 7.55164 56.817 7.07069V6.8766ZM57.463 13.3737C57.463 12.8937 57.7319 12.6227 58.213 12.6227H61.228C61.708 12.6227 61.98 12.8937 61.98 13.3737V16.5387C61.98 17.0187 61.708 17.2887 61.228 17.2887H59.173C59.173 17.6337 58.903 17.8297 58.423 17.8297H58.213C57.7319 17.8297 57.463 17.5587 57.463 17.0787V13.3737ZM57.5079 9.08167C57.5079 8.60169 57.777 8.33167 58.2579 8.33167H61.1379C61.6179 8.33167 61.8879 8.60169 61.8879 9.08167V9.20155C61.8879 9.68177 61.6179 9.95155 61.1379 9.95155H58.2579C57.777 9.95155 57.5079 9.68177 57.5079 9.20155V9.08167ZM57.5079 11.2125C57.5079 10.7316 57.777 10.4625 58.2579 10.4625H61.1379C61.6179 10.4625 61.8879 10.7316 61.8879 11.2125V11.3327C61.8879 11.8126 61.6179 12.0827 61.1379 12.0827H58.2579C57.777 12.0827 57.5079 11.8126 57.5079 11.3327V11.2125ZM61.1539 5.63075H58.3469C57.8669 5.63075 57.598 5.36073 57.598 4.88075V4.76063C57.598 4.28065 57.8669 4.01063 58.3469 4.01063H61.1539C61.634 4.01063 61.9039 4.28065 61.9039 4.76063V4.88075C61.9039 5.36073 61.634 5.63075 61.1539 5.63075ZM60.223 14.3178H59.173V15.5927H60.223V14.3178ZM62.458 8.66273C62.458 8.18177 62.73 7.91053 63.21 7.91053H65.37V6.42567C64.86 6.4867 64.364 6.53162 63.884 6.57655C63.4189 6.60658 63.1649 6.38075 63.03 5.93055C62.999 5.81068 62.969 5.7057 62.924 5.58558C62.759 5.07459 62.9399 4.76063 63.465 4.70057C65.114 4.52064 66.781 4.23475 68.0709 3.86073C68.475 3.74061 68.791 3.84461 69.061 4.17567L69.511 4.74574C69.856 5.18055 69.752 5.61659 69.1959 5.75062C68.655 5.88563 68.085 6.00672 67.501 6.11073V7.91053H69.676C70.156 7.91053 70.426 8.18177 70.426 8.66273V9.21668C70.426 9.69666 70.156 9.96766 69.676 9.96766H67.501V11.6327H69.135C69.615 11.6327 69.887 11.9027 69.887 12.3827V17.0336C69.887 17.5136 69.615 17.7846 69.135 17.7846H68.5649C68.085 17.7846 67.8149 17.6647 67.8149 17.4537V17.1246H65.114C65.114 17.5888 64.845 17.8446 64.364 17.8446H63.9149C63.4349 17.8446 63.1649 17.5746 63.1649 17.0946V12.3827C63.1649 11.9027 63.4349 11.6327 63.9149 11.6327H65.37V9.96766H63.21C62.73 9.96766 62.458 9.69666 62.458 9.21668V8.66273ZM67.8149 13.5827H65.114V15.1737H67.8149V13.5827Z" fill="#231815"/>
<path d="M72.9979 16.2693V15.4133C72.9979 14.9333 73.2679 14.6633 73.7479 14.6633H79.7789V8.39136H73.7479C73.2679 8.39136 72.9979 8.12134 72.9979 7.64136V6.78735C72.9979 6.30737 73.2679 6.03516 73.7479 6.03516H81.475C81.955 6.03516 82.225 6.30737 82.225 6.78735V16.2693C82.225 16.7493 81.955 17.0193 81.475 17.0193H73.7479C73.2679 17.0193 72.9979 16.7493 72.9979 16.2693Z" fill="#231815"/>
<path d="M85.77 12.3833V11.5273C85.77 11.0474 86.0399 10.7773 86.52 10.7773H91.952C92.432 10.7773 92.702 11.0474 92.702 11.5273V12.3833C92.702 12.8633 92.432 13.1333 91.952 13.1333H86.52C86.0399 13.1333 85.77 12.8633 85.77 12.3833Z" fill="#231815"/>
<path d="M95.6169 16.7793V15.5784C95.6169 15.1733 95.782 14.9043 96.126 14.6772C98.7679 13.0283 100.478 11.0322 101.603 8.19629H96.922C96.442 8.19629 96.173 7.92627 96.173 7.44629V6.53125C96.173 6.05127 96.442 5.78125 96.922 5.78125H103.959C104.484 5.78125 104.754 6.09619 104.619 6.6062C104.153 8.58618 103.314 10.2822 102.398 11.6924C103.103 12.7283 104.124 13.7024 104.979 14.4382C105.279 14.6934 105.399 14.9634 105.399 15.3533V16.5693C105.399 17.1982 104.979 17.4233 104.47 17.0332C103.164 15.9993 102.128 14.9333 101.064 13.5083C100.028 14.7832 98.212 16.3442 96.502 17.3193C96.007 17.6194 95.6169 17.3643 95.6169 16.7793Z" fill="#231815"/>
<path d="M21.4199 10.71C21.4199 5.18799 18.6899 0 10.71 0C2.72998 0 0 5.18799 0 10.71C0 16.2319 2.72998 21.4199 10.71 21.4199C18.6899 21.4199 21.4199 16.2319 21.4199 10.71Z" fill="#55B032"/>
<path d="M4.896 14.2766C4.896 13.4746 5.30493 12.8774 6.36304 12.8774C7.13098 12.8774 7.88196 13.2356 8.53003 13.3726C8.75195 12.9805 8.87195 12.2805 8.93994 11.8364L9.07593 10.8816C7.93298 10.6936 6.56799 10.2156 5.61194 9.22559L6.68701 7.80957C7.59192 8.56055 8.53003 8.91846 9.31494 9.0896C9.67297 6.63257 10.646 5.0625 12.984 5.0625C14.161 5.0625 15.51 5.84741 15.51 7.45142C15.51 8.74854 14.469 10.7275 11.1069 10.9666L10.936 12.1436C10.851 12.7075 10.646 13.5945 10.3729 14.0544C10.817 14.2424 11.397 14.3286 12.046 14.3286C13.257 14.3286 14.213 13.6455 14.9979 12.1436L16.448 12.8435C15.561 14.7375 14.11 16.0515 11.9769 15.9836C10.9709 15.9495 9.96399 15.6936 9.02502 15.3684C8.44495 15.8125 7.71094 15.9836 6.95996 15.9836C5.66394 15.9836 4.91296 15.2156 4.896 14.2766ZM13.496 7.50244C13.496 7.07544 13.223 6.85449 12.848 6.85449C12.131 6.85449 11.619 7.80957 11.397 9.15747C13.103 8.91846 13.496 7.96362 13.496 7.50244Z" fill="white"/>
</svg>
